icons/cv.svg

<?xml version="1.0" ?>
<svg xmlns="http://www.w3.org/2000/svg" xmlns:ev="http://www.w3.org/2001/xml-events" xmlns:xlink="http://www.w3.org/1999/xlink" baseProfile="full" height="551px" version="1.1" viewBox="-1028.8625731415261 -513.8187192693608 12295.163685004703 11274.63743853872" width="600px">
	<defs/>
	<path d="M 868.0,9775.0 C 772.0,9745.0 716.0,9722.0 682.0,9697.0 C 648.0,9673.0 625.0,9663.0 611.0,9667.0 C 581.0,9675.0 488.0,9589.0 475.0,9542.0 C 465.0,9506.0 463.0,9505.0 395.0,9493.0 C 356.0,9487.0 279.0,9465.0 222.0,9446.0 C 138.0,9417.0 108.0,9401.0 59.0,9359.0 L 0.0,9308.0 L 0.0,9230.0 L 0.0,9152.0 L 57.0,9118.0 L 115.0,9084.0 L 150.0,8984.0 L 184.0,8883.0 L 158.0,8852.0 C 135.0,8824.0 133.0,8817.0 141.0,8773.0 C 154.0,8705.0 155.0,8703.0 199.0,8680.0 C 247.0,8656.0 266.0,8655.0 337.0,8676.0 C 373.0,8686.0 404.0,8689.0 428.0,8685.0 C 449.0,8680.0 507.0,8678.0 559.0,8679.0 L 653.0,8682.0 L 837.0,8870.0 C 1005.0,9043.0 1024.0,9059.0 1049.0,9054.0 C 1083.0,9047.0 1153.0,9080.0 1265.0,9157.0 C 1354.0,9218.0 1372.0,9236.0 1436.0,9330.0 C 1473.0,9384.0 1480.0,9403.0 1480.0,9442.0 C 1480.0,9486.0 1479.0,9489.0 1448.0,9496.0 C 1430.0,9499.0 1389.0,9523.0 1358.0,9547.0 C 1302.0,9591.0 1301.0,9593.0 1298.0,9647.0 L 1295.0,9702.0 L 1245.0,9722.0 C 1218.0,9733.0 1152.0,9759.0 1100.0,9779.0 L 1005.0,9817.0 L 868.0,9775.0" fill="pink"/>
	<path d="M 1595.0,8685.0 L 1546.0,8650.0 L 1513.0,8682.0 L 1480.0,8714.0 L 1426.0,8661.0 C 1396.0,8632.0 1368.0,8594.0 1363.0,8576.0 C 1358.0,8559.0 1349.0,8546.0 1344.0,8546.0 C 1339.0,8547.0 1297.0,8551.0 1250.0,8554.0 L 1165.0,8561.0 L 1147.0,8517.0 C 1132.0,8481.0 1121.0,8469.0 1081.0,8450.0 C 1036.0,8429.0 1032.0,8424.0 1028.0,8387.0 C 1024.0,8350.0 1027.0,8346.0 1057.0,8334.0 C 1082.0,8323.0 1091.0,8312.0 1096.0,8285.0 C 1104.0,8241.0 1110.0,8238.0 1148.0,8251.0 C 1177.0,8261.0 1183.0,8258.0 1238.0,8212.0 C 1285.0,8174.0 1310.0,8161.0 1358.0,8150.0 C 1417.0,8138.0 1423.0,8138.0 1477.0,8163.0 C 1558.0,8198.0 1594.0,8207.0 1679.0,8214.0 C 1726.0,8218.0 1774.0,8230.0 1811.0,8246.0 C 1865.0,8271.0 1868.0,8274.0 1877.0,8320.0 C 1884.0,8356.0 1883.0,8374.0 1873.0,8395.0 C 1865.0,8410.0 1861.0,8433.0 1865.0,8449.0 C 1870.0,8475.0 1868.0,8478.0 1839.0,8484.0 C 1822.0,8487.0 1788.0,8490.0 1764.0,8490.0 L 1721.0,8490.0 L 1705.0,8545.0 C 1691.0,8594.0 1691.0,8603.0 1704.0,8629.0 C 1718.0,8655.0 1718.0,8659.0 1697.0,8677.0 C 1646.0,8722.0 1647.0,8721.0 1595.0,8685.0" fill="pink"/>
	<path d="M 9234.0,8439.0 C 9218.0,8429.0 9189.0,8420.0 9169.0,8420.0 C 9139.0,8420.0 9122.0,8410.0 9065.0,8358.0 L 8998.0,8296.0 L 9002.0,8216.0 C 9005.0,8150.0 9010.0,8128.0 9031.0,8095.0 C 9054.0,8059.0 9056.0,8052.0 9044.0,8025.0 C 9036.0,8009.0 9031.0,7975.0 9032.0,7951.0 C 9034.0,7913.0 9030.0,7904.0 9002.0,7880.0 C 8984.0,7866.0 8970.0,7850.0 8970.0,7847.0 C 8970.0,7843.0 8994.0,7840.0 9023.0,7839.0 C 9051.0,7839.0 9097.0,7833.0 9125.0,7827.0 C 9169.0,7816.0 9176.0,7811.0 9188.0,7778.0 C 9202.0,7742.0 9201.0,7740.0 9171.0,7702.0 L 9140.0,7662.0 L 9187.0,7619.0 L 9234.0,7576.0 L 9237.0,7496.0 C 9240.0,7451.0 9243.0,7410.0 9245.0,7403.0 C 9248.0,7395.0 9272.0,7399.0 9327.0,7416.0 C 9369.0,7430.0 9406.0,7443.0 9408.0,7445.0 C 9410.0,7447.0 9402.0,7470.0 9392.0,7497.0 C 9381.0,7523.0 9369.0,7559.0 9366.0,7577.0 C 9362.0,7604.0 9364.0,7609.0 9383.0,7612.0 C 9400.0,7614.0 9406.0,7623.0 9408.0,7647.0 C 9410.0,7667.0 9421.0,7687.0 9436.0,7699.0 C 9449.0,7709.0 9460.0,7725.0 9460.0,7734.0 C 9460.0,7742.0 9442.0,7794.0 9420.0,7849.0 C 9399.0,7904.0 9374.0,7977.0 9366.0,8012.0 L 9351.0,8075.0 L 9377.0,8096.0 L 9403.0,8116.0 L 9377.0,8206.0 C 9355.0,8283.0 9352.0,8302.0 9361.0,8335.0 C 9372.0,8373.0 9371.0,8375.0 9334.0,8408.0 C 9274.0,8459.0 9267.0,8461.0 9234.0,8439.0" fill="pink"/>
	<path d="M 2152.0,8189.0 C 2131.0,8141.0 2131.0,8137.0 2148.0,8116.0 C 2157.0,8103.0 2191.0,8082.0 2224.0,8069.0 C 2265.0,8053.0 2288.0,8037.0 2299.0,8017.0 C 2334.0,7955.0 2328.0,7957.0 2439.0,7965.0 C 2537.0,7972.0 2541.0,7973.0 2555.0,8001.0 C 2563.0,8016.0 2570.0,8031.0 2570.0,8034.0 C 2570.0,8045.0 2501.0,8060.0 2449.0,8060.0 C 2398.0,8060.0 2391.0,8063.0 2385.0,8083.0 C 2381.0,8095.0 2365.0,8119.0 2350.0,8135.0 C 2334.0,8152.0 2320.0,8174.0 2318.0,8184.0 C 2316.0,8198.0 2298.0,8208.0 2250.0,8222.0 C 2214.0,8232.0 2182.0,8240.0 2179.0,8240.0 C 2175.0,8240.0 2163.0,8217.0 2152.0,8189.0" fill="pink"/>
	<path d="M 3821.0,7759.0 C 3802.0,7743.0 3784.0,7740.0 3739.0,7741.0 C 3683.0,7743.0 3679.0,7741.0 3636.0,7702.0 C 3611.0,7679.0 3582.0,7660.0 3571.0,7660.0 C 3539.0,7660.0 3525.0,7592.0 3542.0,7522.0 L 3555.0,7468.0 L 3664.0,7400.0 L 3772.0,7332.0 L 3831.0,7223.0 C 3871.0,7148.0 3891.0,7099.0 3896.0,7062.0 C 3902.0,7014.0 3906.0,7007.0 3936.0,6992.0 C 3967.0,6978.0 3971.0,6978.0 3989.0,6994.0 C 4005.0,7009.0 4007.0,7017.0 3998.0,7047.0 C 3990.0,7077.0 3992.0,7085.0 4008.0,7104.0 C 4019.0,7115.0 4054.0,7176.0 4085.0,7238.0 L 4141.0,7350.0 L 4179.0,7350.0 C 4205.0,7350.0 4228.0,7359.0 4256.0,7380.0 C 4292.0,7407.0 4301.0,7409.0 4380.0,7410.0 L 4465.0,7410.0 L 4580.0,7344.0 C 4718.0,7265.0 4752.0,7258.0 4945.0,7266.0 C 5120.0,7274.0 5142.0,7288.0 5105.0,7360.0 C 5093.0,7384.0 5083.0,7390.0 5057.0,7390.0 C 5031.0,7390.0 5014.0,7401.0 4971.0,7444.0 C 4933.0,7483.0 4901.0,7504.0 4859.0,7519.0 C 4805.0,7539.0 4794.0,7540.0 4689.0,7529.0 C 4582.0,7519.0 4576.0,7519.0 4549.0,7539.0 C 4475.0,7594.0 4448.0,7606.0 4368.0,7624.0 L 4281.0,7642.0 L 4247.0,7621.0 C 4218.0,7603.0 4207.0,7602.0 4185.0,7610.0 C 4162.0,7619.0 4153.0,7617.0 4135.0,7600.0 C 4123.0,7589.0 4109.0,7580.0 4104.0,7580.0 C 4089.0,7580.0 4033.0,7641.0 3997.0,7696.0 C 3968.0,7741.0 3961.0,7745.0 3922.0,7748.0 C 3896.0,7750.0 3877.0,7757.0 3873.0,7766.0 C 3866.0,7785.0 3850.0,7783.0 3821.0,7759.0" fill="pink"/>
	<path d="M 2550.0,7691.0 C 2550.0,7645.0 2551.0,7642.0 2581.0,7636.0 C 2641.0,7624.0 2643.0,7628.0 2603.0,7685.0 C 2582.0,7715.0 2562.0,7740.0 2558.0,7740.0 C 2553.0,7740.0 2550.0,7718.0 2550.0,7691.0" fill="pink"/>
	<path d="M 2885.0,7540.0 C 2870.0,7524.0 2868.0,7514.0 2876.0,7492.0 C 2890.0,7451.0 2923.0,7452.0 2949.0,7493.0 C 2960.0,7512.0 2970.0,7530.0 2970.0,7533.0 C 2970.0,7537.0 2915.0,7560.0 2905.0,7560.0 C 2904.0,7560.0 2895.0,7551.0 2885.0,7540.0" fill="pink"/>
	<path d="M 9720.0,5991.0 L 9698.0,5943.0 L 9622.0,5932.0 C 9482.0,5910.0 9449.0,5914.0 9361.0,5965.0 C 9318.0,5990.0 9278.0,6010.0 9273.0,6010.0 C 9267.0,6010.0 9258.0,5992.0 9252.0,5971.0 C 9245.0,5939.0 9246.0,5929.0 9258.0,5916.0 C 9272.0,5903.0 9271.0,5899.0 9257.0,5876.0 C 9235.0,5843.0 9235.0,5836.0 9266.0,5763.0 C 9289.0,5709.0 9292.0,5693.0 9286.0,5637.0 L 9279.0,5572.0 L 9212.0,5527.0 C 9163.0,5494.0 9136.0,5468.0 9111.0,5427.0 L 9078.0,5371.0 L 9099.0,5273.0 C 9111.0,5220.0 9122.0,5175.0 9123.0,5174.0 C 9152.0,5150.0 9241.0,5107.0 9295.0,5091.0 C 9348.0,5076.0 9375.0,5061.0 9400.0,5034.0 L 9435.0,4998.0 L 9545.0,5004.0 C 9632.0,5009.0 9665.0,5007.0 9699.0,4995.0 C 9723.0,4987.0 9744.0,4981.0 9745.0,4982.0 C 9747.0,4984.0 9761.0,5010.0 9778.0,5040.0 C 9808.0,5092.0 9816.0,5099.0 9952.0,5174.0 C 10184.0,5303.0 10200.0,5314.0 10200.0,5352.0 C 10200.0,5370.0 10209.0,5393.0 10221.0,5406.0 C 10242.0,5428.0 10242.0,5429.0 10226.0,5551.0 L 10210.0,5674.0 L 10151.0,5735.0 C 10104.0,5783.0 10091.0,5803.0 10087.0,5835.0 C 10084.0,5857.0 10077.0,5887.0 10071.0,5903.0 C 10061.0,5927.0 10056.0,5930.0 10010.0,5930.0 C 9969.0,5930.0 9940.0,5940.0 9851.0,5984.0 L 9743.0,6039.0 L 9720.0,5991.0" fill="pink"/>
	<path d="M 6068.0,2493.0 C 6028.0,2452.0 6021.0,2439.0 6019.0,2400.0 C 6015.0,2337.0 6047.0,2247.0 6086.0,2209.0 C 6116.0,2180.0 6117.0,2176.0 6108.0,2142.0 C 6102.0,2122.0 6087.0,2092.0 6074.0,2075.0 C 6057.0,2053.0 6050.0,2030.0 6050.0,1999.0 C 6049.0,1975.0 6041.0,1940.0 6031.0,1922.0 C 6017.0,1894.0 6015.0,1880.0 6023.0,1835.0 C 6037.0,1759.0 6020.0,1645.0 5987.0,1594.0 C 5973.0,1572.0 5959.0,1532.0 5956.0,1503.0 L 5949.0,1450.0 L 5992.0,1429.0 C 6025.0,1413.0 6040.0,1398.0 6056.0,1361.0 C 6076.0,1317.0 6079.0,1314.0 6111.0,1317.0 C 6141.0,1320.0 6149.0,1315.0 6182.0,1272.0 L 6219.0,1223.0 L 6188.0,1192.0 L 6157.0,1162.0 L 6230.0,1077.0 L 6303.0,993.0 L 6459.0,928.0 C 6597.0,870.0 6631.0,860.0 6758.0,840.0 C 6896.0,818.0 7052.0,816.0 7101.0,835.0 C 7113.0,839.0 7120.0,859.0 7125.0,898.0 C 7130.0,944.0 7139.0,964.0 7171.0,1002.0 C 7205.0,1043.0 7209.0,1052.0 7200.0,1075.0 C 7185.0,1114.0 7186.0,1116.0 7238.0,1135.0 C 7264.0,1145.0 7288.0,1156.0 7293.0,1159.0 C 7301.0,1167.0 7282.0,1239.0 7248.0,1333.0 C 7229.0,1386.0 7225.0,1390.0 7196.0,1390.0 C 7168.0,1390.0 7159.0,1399.0 7109.0,1473.0 C 7067.0,1534.0 7051.0,1568.0 7046.0,1605.0 C 7035.0,1684.0 7032.0,1688.0 6979.0,1705.0 C 6941.0,1718.0 6923.0,1731.0 6899.0,1766.0 C 6870.0,1809.0 6867.0,1810.0 6817.0,1810.0 L 6764.0,1810.0 L 6681.0,1956.0 L 6598.0,2101.0 L 6560.0,2099.0 C 6528.0,2096.0 6510.0,2104.0 6452.0,2143.0 C 6414.0,2170.0 6366.0,2213.0 6346.0,2240.0 L 6308.0,2290.0 L 6319.0,2352.0 L 6330.0,2413.0 L 6285.0,2461.0 C 6260.0,2488.0 6238.0,2511.0 6235.0,2512.0 C 6233.0,2514.0 6220.0,2500.0 6206.0,2482.0 L 6182.0,2449.0 L 6150.0,2494.0 C 6133.0,2519.0 6118.0,2540.0 6117.0,2540.0 C 6115.0,2540.0 6093.0,2519.0 6068.0,2493.0" fill="pink"/>
	<path d="M 8206.0,2468.0 C 8184.0,2434.0 8160.0,2383.0 8152.0,2353.0 C 8138.0,2304.0 8134.0,2299.0 8099.0,2290.0 C 8065.0,2281.0 8062.0,2277.0 8058.0,2239.0 C 8056.0,2211.0 8058.0,2196.0 8067.0,2194.0 C 8074.0,2192.0 8087.0,2188.0 8095.0,2185.0 C 8106.0,2182.0 8110.0,2166.0 8110.0,2131.0 C 8110.0,2091.0 8106.0,2078.0 8086.0,2063.0 C 8056.0,2040.0 8029.0,1903.0 8037.0,1817.0 C 8042.0,1761.0 8044.0,1758.0 8084.0,1738.0 C 8106.0,1727.0 8141.0,1703.0 8160.0,1685.0 C 8193.0,1654.0 8201.0,1651.0 8280.0,1645.0 L 8365.0,1639.0 L 8486.0,1746.0 L 8606.0,1852.0 L 8592.0,1974.0 C 8585.0,2040.0 8568.0,2127.0 8556.0,2166.0 C 8535.0,2230.0 8534.0,2239.0 8547.0,2265.0 C 8561.0,2292.0 8560.0,2297.0 8529.0,2356.0 C 8510.0,2391.0 8490.0,2420.0 8484.0,2420.0 C 8478.0,2420.0 8456.0,2413.0 8437.0,2405.0 C 8417.0,2397.0 8397.0,2390.0 8392.0,2390.0 C 8388.0,2390.0 8372.0,2415.0 8357.0,2445.0 C 8342.0,2475.0 8327.0,2500.0 8322.0,2500.0 C 8318.0,2500.0 8307.0,2488.0 8298.0,2473.0 L 8282.0,2446.0 L 8269.0,2488.0 C 8262.0,2511.0 8254.0,2530.0 8251.0,2529.0 C 8248.0,2529.0 8227.0,2501.0 8206.0,2468.0" fill="pink"/>
	<path d="M 3684.0,1386.0 C 3651.0,1374.0 3610.0,1355.0 3594.0,1343.0 C 3578.0,1332.0 3530.0,1310.0 3486.0,1295.0 C 3415.0,1269.0 3403.0,1261.0 3359.0,1206.0 C 3300.0,1132.0 3255.0,1022.0 3227.0,882.0 L 3206.0,779.0 L 3308.0,677.0 C 3406.0,579.0 3415.0,573.0 3529.0,523.0 C 3615.0,484.0 3660.0,470.0 3692.0,470.0 C 3755.0,470.0 3868.0,524.0 3953.0,593.0 C 3990.0,624.0 4029.0,652.0 4040.0,655.0 C 4059.0,661.0 4060.0,670.0 4060.0,798.0 C 4060.0,968.0 4047.0,1077.0 4013.0,1183.0 C 3990.0,1258.0 3982.0,1270.0 3927.0,1320.0 C 3873.0,1370.0 3800.0,1408.0 3760.0,1409.0 C 3752.0,1409.0 3718.0,1399.0 3684.0,1386.0" fill="pink"/>
	<path d="M 2485.0,800.0 C 2465.0,787.0 2438.0,780.0 2403.0,780.0 C 2348.0,780.0 2349.0,781.0 2335.0,713.0 C 2331.0,691.0 2322.0,680.0 2307.0,678.0 C 2289.0,675.0 2283.0,664.0 2271.0,602.0 C 2264.0,562.0 2260.0,527.0 2263.0,523.0 C 2267.0,520.0 2287.0,522.0 2310.0,528.0 L 2350.0,538.0 L 2388.0,484.0 C 2408.0,454.0 2429.0,430.0 2434.0,430.0 C 2438.0,430.0 2455.0,441.0 2471.0,454.0 C 2488.0,468.0 2520.0,482.0 2546.0,486.0 L 2593.0,493.0 L 2586.0,568.0 C 2583.0,609.0 2580.0,676.0 2580.0,716.0 C 2580.0,787.0 2579.0,790.0 2550.0,805.0 C 2515.0,823.0 2521.0,824.0 2485.0,800.0" fill="pink"/>
</svg>

<?xml version="1.0" standalone="no"?>
<!DOCTYPE svg PUBLIC "-//W3C//DTD SVG 20010904//EN"
 "http://www.w3.org/TR/2001/REC-SVG-20010904/DTD/svg10.dtd">
<svg version="1.0" xmlns="http://www.w3.org/2000/svg"
 width="1024.000000pt" height="1024.000000pt" viewBox="0 0 1024.000000 1024.000000"
 preserveAspectRatio="xMidYMid meet">
<metadata>
Created by potrace 1.10, written by Peter Selinger 2001-2011
</metadata>
<g transform="translate(0.000000,1024.000000) scale(0.100000,-0.100000)"
fill="#000000" stroke="none">
<path d="M868 9775 c-96 -30 -152 -53 -186 -78 -34 -24 -57 -34 -71 -30 -30 8
-123 -78 -136 -125 -10 -36 -12 -37 -80 -49 -39 -6 -116 -28 -173 -47 -84 -29
-114 -45 -163 -87 l-59 -51 0 -78 0 -78 57 -34 58 -34 35 -100 34 -101 -26
-31 c-23 -28 -25 -35 -17 -79 13 -68 14 -70 58 -93 48 -24 67 -25 138 -4 36
10 67 13 91 9 21 -5 79 -7 131 -6 l94 3 184 188 c168 173 187 189 212 184 34
-7 104 26 216 103 89 61 107 79 171 173 37 54 44 73 44 112 0 44 -1 47 -32 54
-18 3 -59 27 -90 51 -56 44 -57 46 -60 100 l-3 55 -50 20 c-27 11 -93 37 -145
57 l-95 38 -137 -42z"/>
<path d="M1595 8685 l-49 -35 -33 32 -33 32 -54 -53 c-30 -29 -58 -67 -63 -85
-5 -17 -14 -30 -19 -30 -5 1 -47 5 -94 8 l-85 7 -18 -44 c-15 -36 -26 -48 -66
-67 -45 -21 -49 -26 -53 -63 -4 -37 -1 -41 29 -53 25 -11 34 -22 39 -49 8 -44
14 -47 52 -34 29 10 35 7 90 -39 47 -38 72 -51 120 -62 59 -12 65 -12 119 13
81 35 117 44 202 51 47 4 95 16 132 32 54 25 57 28 66 74 7 36 6 54 -4 75 -8
15 -12 38 -8 54 5 26 3 29 -26 35 -17 3 -51 6 -75 6 l-43 0 -16 55 c-14 49
-14 58 -1 84 14 26 14 30 -7 48 -51 45 -50 44 -102 8z"/>
<path d="M9234 8439 c-16 -10 -45 -19 -65 -19 -30 0 -47 -10 -104 -62 l-67
-62 4 -80 c3 -66 8 -88 29 -121 23 -36 25 -43 13 -70 -8 -16 -13 -50 -12 -74
2 -38 -2 -47 -30 -71 -18 -14 -32 -30 -32 -33 0 -4 24 -7 53 -8 28 0 74 -6
102 -12 44 -11 51 -16 63 -49 14 -36 13 -38 -17 -76 l-31 -40 47 -43 47 -43 3
-80 c3 -45 6 -86 8 -93 3 -8 27 -4 82 13 42 14 79 27 81 29 2 2 -6 25 -16 52
-11 26 -23 62 -26 80 -4 27 -2 32 17 35 17 2 23 11 25 35 2 20 13 40 28 52 13
10 24 26 24 35 0 8 -18 60 -40 115 -21 55 -46 128 -54 163 l-15 63 26 21 26
20 -26 90 c-22 77 -25 96 -16 129 11 38 10 40 -27 73 -60 51 -67 53 -100 31z"/>
<path d="M2152 8189 c-21 -48 -21 -52 -4 -73 9 -13 43 -34 76 -47 41 -16 64
-32 75 -52 35 -62 29 -60 140 -52 98 7 102 8 116 36 8 15 15 30 15 33 0 11
-69 26 -121 26 -51 0 -58 3 -64 23 -4 12 -20 36 -35 52 -16 17 -30 39 -32 49
-2 14 -20 24 -68 38 -36 10 -68 18 -71 18 -4 0 -16 -23 -27 -51z"/>
<path d="M3821 7759 c-19 -16 -37 -19 -82 -18 -56 2 -60 0 -103 -39 -25 -23
-54 -42 -65 -42 -32 0 -46 -68 -29 -138 l13 -54 109 -68 108 -68 59 -109 c40
-75 60 -124 65 -161 6 -48 10 -55 40 -70 31 -14 35 -14 53 2 16 15 18 23 9 53
-8 30 -6 38 10 57 11 11 46 72 77 134 l56 112 38 0 c26 0 49 9 77 30 36 27 45
29 124 30 l85 0 115 -66 c138 -79 172 -86 365 -78 175 8 197 22 160 94 -12 24
-22 30 -48 30 -26 0 -43 11 -86 54 -38 39 -70 60 -112 75 -54 20 -65 21 -170
10 -107 -10 -113 -10 -140 10 -74 55 -101 67 -181 85 l-87 18 -34 -21 c-29
-18 -40 -19 -62 -11 -23 9 -32 7 -50 -10 -12 -11 -26 -20 -31 -20 -15 0 -71
61 -107 116 -29 45 -36 49 -75 52 -26 2 -45 9 -49 18 -7 19 -23 17 -52 -7z"/>
<path d="M2550 7691 c0 -46 1 -49 31 -55 60 -12 62 -8 22 49 -21 30 -41 55
-45 55 -5 0 -8 -22 -8 -49z"/>
<path d="M2885 7540 c-15 -16 -17 -26 -9 -48 14 -41 47 -40 73 1 11 19 21 37
21 40 0 4 -55 27 -65 27 -1 0 -10 -9 -20 -20z"/>
<path d="M9720 5991 l-22 -48 -76 -11 c-140 -22 -173 -18 -261 33 -43 25 -83
45 -88 45 -6 0 -15 -18 -21 -39 -7 -32 -6 -42 6 -55 14 -13 13 -17 -1 -40 -22
-33 -22 -40 9 -113 23 -54 26 -70 20 -126 l-7 -65 -67 -45 c-49 -33 -76 -59
-101 -100 l-33 -56 21 -98 c12 -53 23 -98 24 -99 29 -24 118 -67 172 -83 53
-15 80 -30 105 -57 l35 -36 110 6 c87 5 120 3 154 -9 24 -8 45 -14 46 -13 2 2
16 28 33 58 30 52 38 59 174 134 232 129 248 140 248 178 0 18 9 41 21 54 21
22 21 23 5 145 l-16 123 -59 61 c-47 48 -60 68 -64 100 -3 22 -10 52 -16 68
-10 24 -15 27 -61 27 -41 0 -70 10 -159 54 l-108 55 -23 -48z"/>
<path d="M6068 2493 c-40 -41 -47 -54 -49 -93 -4 -63 28 -153 67 -191 30 -29
31 -33 22 -67 -6 -20 -21 -50 -34 -67 -17 -22 -24 -45 -24 -76 -1 -24 -9 -59
-19 -77 -14 -28 -16 -42 -8 -87 14 -76 -3 -190 -36 -241 -14 -22 -28 -62 -31
-91 l-7 -53 43 -21 c33 -16 48 -31 64 -68 20 -44 23 -47 55 -44 30 3 38 -2 71
-45 l37 -49 -31 -31 -31 -30 73 -85 73 -84 156 -65 c138 -58 172 -68 299 -88
138 -22 294 -24 343 -5 12 4 19 24 24 63 5 46 14 66 46 104 34 41 38 50 29 73
-15 39 -14 41 38 60 26 10 50 21 55 24 8 8 -11 80 -45 174 -19 53 -23 57 -52
57 -28 0 -37 9 -87 83 -42 61 -58 95 -63 132 -11 79 -14 83 -67 100 -38 13
-56 26 -80 61 -29 43 -32 44 -82 44 l-53 0 -83 146 -83 145 -38 -2 c-32 -3
-50 5 -108 44 -38 27 -86 70 -106 97 l-38 50 11 62 11 61 -45 48 c-25 27 -47
50 -50 51 -2 2 -15 -12 -29 -30 l-24 -33 -32 45 c-17 25 -32 46 -33 46 -2 0
-24 -21 -49 -47z"/>
<path d="M8206 2468 c-22 -34 -46 -85 -54 -115 -14 -49 -18 -54 -53 -63 -34
-9 -37 -13 -41 -51 -2 -28 0 -43 9 -45 7 -2 20 -6 28 -9 11 -3 15 -19 15 -54
0 -40 -4 -53 -24 -68 -30 -23 -57 -160 -49 -246 5 -56 7 -59 47 -79 22 -11 57
-35 76 -53 33 -31 41 -34 120 -40 l85 -6 121 107 120 106 -14 122 c-7 66 -24
153 -36 192 -21 64 -22 73 -9 99 14 27 13 32 -18 91 -19 35 -39 64 -45 64 -6
0 -28 -7 -47 -15 -20 -8 -40 -15 -45 -15 -4 0 -20 25 -35 55 -15 30 -30 55
-35 55 -4 0 -15 -12 -24 -27 l-16 -27 -13 42 c-7 23 -15 42 -18 41 -3 0 -24
-28 -45 -61z"/>
<path d="M3684 1386 c-33 -12 -74 -31 -90 -43 -16 -11 -64 -33 -108 -48 -71
-26 -83 -34 -127 -89 -59 -74 -104 -184 -132 -324 l-21 -103 102 -102 c98 -98
107 -104 221 -154 86 -39 131 -53 163 -53 63 0 176 54 261 123 37 31 76 59 87
62 19 6 20 15 20 143 0 170 -13 279 -47 385 -23 75 -31 87 -86 137 -54 50
-127 88 -167 89 -8 0 -42 -10 -76 -23z"/>
<path d="M2485 800 c-20 -13 -47 -20 -82 -20 -55 0 -54 1 -68 -67 -4 -22 -13
-33 -28 -35 -18 -3 -24 -14 -36 -76 -7 -40 -11 -75 -8 -79 4 -3 24 -1 47 5
l40 10 38 -54 c20 -30 41 -54 46 -54 4 0 21 11 37 24 17 14 49 28 75 32 l47 7
-7 75 c-3 41 -6 108 -6 148 0 71 -1 74 -30 89 -35 18 -29 19 -65 -5z"/>
</g>
</svg>
